theme/icons/previewMode.svg

<svg width="16" height="16" viewBox="0 0 16 16" fill="none" xmlns="http://www.w3.org/2000/svg">
<path d="M13.8 11.6089L13.8 13.4C13.8 13.6209 13.6209 13.8 13.4 13.8L2.6 13.8C2.37909 13.8 2.2 13.6209 2.2 13.4L2.2 11.6089L1 11.6089L0.999999 13.4C0.999999 14.2837 1.71634 15 2.6 15L13.4 15C14.2837 15 15 14.2837 15 13.4L15 11.6089L13.8 11.6089Z" fill="#596069"/>
<path d="M13.8 4.99734L15 4.99734L15 2.6C15 1.71634 14.2837 1 13.4 1L2.6 0.999999C1.71634 0.999999 1 1.71634 1 2.6L1 4.99734L2.2 4.99734L2.2 2.6C2.2 2.37909 2.37909 2.2 2.6 2.2L13.4 2.2C13.6209 2.2 13.8 2.37909 13.8 2.6L13.8 4.99734Z" fill="#596069"/>
<path d="M8.00034 11.0955C6.07949 11.0955 4.16317 10.1763 2.25137 8.33802L2 8.09529L2.25137 7.85256C6.06613 4.17642 9.93387 4.17642 13.7486 7.85256L14 8.09529L13.7486 8.33802C11.8409 10.1759 9.92481 11.095 8.00034 11.0955ZM2.97967 8.09529C6.35486 11.1951 9.64513 11.1951 13.0203 8.09529C9.64513 4.99545 6.35486 4.99952 2.97967 8.09529Z" fill="#596069"/>
<path fill-rule="evenodd" clip-rule="evenodd" d="M13.5136 8.0953C9.83807 11.6381 6.16237 11.6381 2.48643 8.0953C6.16191 4.55295 9.83762 4.55295 13.5136 8.0953ZM9.92843 8.09526C9.92843 9.15795 9.06519 10.0194 8.00033 10.0194C6.93547 10.0194 6.07223 9.15795 6.07223 8.09526C6.07223 7.03256 6.93547 6.17108 8.00033 6.17108C9.06519 6.17108 9.92843 7.03256 9.92843 8.09526Z" fill="#596069"/>
<path d="M8.00034 8.86145C8.42434 8.86145 8.76805 8.51844 8.76805 8.09531C8.76805 7.67218 8.42434 7.32916 8.00034 7.32916C7.57635 7.32916 7.23264 7.67218 7.23264 8.09531C7.23264 8.51844 7.57635 8.86145 8.00034 8.86145Z" fill="#596069"/>
</svg>

<svg width="16" height="16" viewBox="0 0 16 16" xmlns="http://www.w3.org/2000/svg"><path d="M13.8 11.609V13.4a.4.4 0 0 1-.4.4H2.6a.4.4 0 0 1-.4-.4v-1.791H1V13.4A1.6 1.6 0 0 0 2.6 15h10.8a1.6 1.6 0 0 0 1.6-1.6v-1.791h-1.2ZM13.8 4.997H15V2.6A1.6 1.6 0 0 0 13.4 1H2.6A1.6 1.6 0 0 0 1 2.6v2.397h1.2V2.6c0-.22.18-.4.4-.4h10.8c.22 0 .4.18.4.4v2.397Z"/><path d="M8 11.095c-1.92 0-3.837-.919-5.749-2.757L2 8.095l.251-.242c3.815-3.677 7.683-3.677 11.498 0l.251.242-.251.243C11.84 10.176 9.925 11.095 8 11.096Zm-5.02-3c3.375 3.1 6.665 3.1 10.04 0-3.375-3.1-6.665-3.095-10.04 0Z"/><path fill-rule="evenodd" clip-rule="evenodd" d="M13.514 8.095c-3.676 3.543-7.352 3.543-11.028 0 3.676-3.542 7.352-3.542 11.028 0Zm-3.586 0A1.926 1.926 0 0 1 8 10.02a1.926 1.926 0 0 1-1.928-1.924c0-1.062.863-1.924 1.928-1.924s1.928.862 1.928 1.924Z"/><path d="M8 8.861a.767.767 0 1 0 .002-1.533A.767.767 0 0 0 8 8.86Z"/></svg>
